X: 1832
T: Are You Ready Yet?
R: reel
M: 4/4
K: Eminor
|:B2AF EGFE|FDFA dAFA|BAAF EGFE|FGFD B3A|
B2AF E3G|D3A dAFA|BAAF EGFE|FGFD B3A:|
|:Beed e3z|gefa gfeg|fdBA B2fB|gBfB edBA|
Beed e3f|gefa g3z|bage aged|Bgfd e3z:|
|:BAGF G3B|dBAG FD D2|E2BA (3B^cd eg|ef3 e2fe|
edBe dBAF|BAGF EFGA|BedB AcBA|GAFA E3z:|

